rospo-dark/16x16/panel/network-wireless-offline.svg

<svg height="22" width="22" xmlns="http://www.w3.org/2000/svg"><path d="m14 15v1c0 .27614.10029.53779.28125.71875l.78125.78125-.78125.78125c-.18096.18096-.28125.44261-.28125.71875v1h1c .27614 0 .53779-.10029.71875-.28125l.78125-.78125.78125.78125c.18096.18096.44261.28125.71875.28125h1v-1c0-.27614-.10029-.53779-.28125-.71875l-.78125-.78125.78125-.78125c.18096-.18096.28125-.44261.28125-.71875v-1h-1c-.27614 0-.53779.10029-.71875.28125l-.78125.78125-.78125-.78125c-.18096-.18096-.44261-.28125-.71875-.28125z" fill="#d3dae3"/><path d="m11.03125 5c-3.03435 0-5.76588 1.2717652-8.03125 3.0163044l8.03125 8.9836956 7.96875-9.0163044c-2.25661-1.7251722-4.9577-2.9836956-7.96875-2.9836956z" fill="#d3dae3"/></svg>

<svg xmlns="http://www.w3.org/2000/svg" width="22" height="22" version="1.1">
 <defs>
  <style id="current-color-scheme" type="text/css">
   .ColorScheme-Text { color:#d3dae3; } .ColorScheme-Highlight { color:#5294e2; }
  </style>
 </defs>
 <path style="fill:currentColor" class="ColorScheme-Text" d="m 14,15 0,1 c 0,0.27614 0.10029,0.53779 0.28125,0.71875 L 15.0625,17.5 14.28125,18.28125 C 14.10029,18.46221 14,18.72386 14,19 l 0,1 1,0 c 0.27614,0 0.53779,-0.10029 0.71875,-0.28125 L 16.5,18.9375 17.28125,19.71875 C 17.46221,19.89971 17.72386,20 18,20 l 1,0 0,-1 c 0,-0.27614 -0.10029,-0.53779 -0.28125,-0.71875 L 17.9375,17.5 18.71875,16.71875 C 18.89971,16.53779 19,16.27614 19,16 l 0,-1 -1,0 c -0.27614,0 -0.53779,0.10029 -0.71875,0.28125 L 16.5,16.0625 15.71875,15.28125 C 15.53779,15.10029 15.27614,15 15,15 l -1,0 z"/>
 <path style="fill:currentColor" class="ColorScheme-Text" d="M 11.03125,5 C 7.9969,5 5.26537,6.2717652 3,8.0163044 L 11.03125,17 19,7.9836956 C 16.74339,6.2585234 14.0423,5 11.03125,5 Z"/>
</svg>
